X:7
T:La Simonienne
B:Les p'tites danses d'Erezee
O:Wallonie
M:6/8
R:quadrille (final)
L:1/8
Q:C4=100
K:C
|: c2 c B2 c | d2 d d2 e | g2 e d2 e | c2 e g2 z |
c2 c B2 c | d2 d d2 e | g2 f d2 B |1 c5 z :|2 c4 z g |
|: g3 g2 a | g3 f2 e | d2 c B2 c | d4 z g |
g3 g2 a | g3 f2 e | d2 c Bcd | c4 z g :|
|: g>fg d2 f | e>de c2 e | d2 c B2 c | d2 e g z g |
g>fg d2 f | e>de c2 e | d2 c B2 d |1 c4 z g :|2 c4 z ||

